svgs/sharp-regular/4.svg

<svg xmlns="http://www.w3.org/2000/svg" viewBox="0 0 384 512"><!--! Font Awesome Pro 6.6.0 by @fontawesome - https://fontawesome.com License - https://fontawesome.com/license (Commercial License) Copyright 2024 Fonticons, Inc. --><path d="M152.8 32l53 0-.1 .2L77.8 304 272 304l0-152 0-24 48 0 0 24 0 152 40 0 24 0 0 48-24 0-40 0 0 104 0 24-48 0 0-24 0-104L40 352 2.2 352l16.1-34.2L152.8 32z"/></svg>

<svg xmlns="http://www.w3.org/2000/svg" viewBox="0 0 384 512"><!--! Font Awesome Pro 6.4.2 by @fontawesome - https://fontawesome.com License - https://fontawesome.com/license (Commercial License) Copyright 2023 Fonticons, Inc. --><path d="M152.8 32h53l-.1 .2L77.8 304H272V152 128h48v24V304h40 24v48H360 320V456v24H272V456 352H40 2.2l16.1-34.2L152.8 32z"/></svg>
